X:6
T:Funny Tailor
Z: id:dc-setdance-7
M:6/8
L:1/8
K:G Major
D|GED GAB|GBA G2G|G2A Bcd|efg fed|e2B d2A|!
Bcd efg|fed g2B|dBA GED|GAB GBA|G2G G2A|!
Bcd efg|fed g2B|dBA GED|GAB GBA|G2G G2|]!

